build/logo/MatryoshkaOutline.svg

<svg xmlns="http://www.w3.org/2000/svg" fill="none" viewBox="0 0 24 24" focusable="false"><path d="M0 0H24V24H0z"/><path fill="#74767B" fill-rule="evenodd" d="M17.7145 12.2422C17.8716 11.1004 18.7655 9.97307 19.7156 9.32057C19.9082 9.18828 20.0915 9.03652 20.2627 8.86532C21.7694 7.35867 21.7694 4.91592 20.2627 3.40928C18.7561 1.90264 16.3133 1.90264 14.8067 3.40928C14.6356 3.58034 14.484 3.76347 14.3518 3.95592C13.6991 4.9059 12.5716 5.7996 11.4298 5.95657C10.9387 6.02409 10.4515 6.15337 9.98111 6.34409C9.1444 6.68332 9.07665 7.75566 9.71507 8.39408L15.2771 13.9561C15.9155 14.5945 16.9879 14.5268 17.3271 13.6901C17.5177 13.2199 17.6469 12.7331 17.7145 12.2422ZM16.4266 12.065C16.6498 10.4432 17.8419 9.03032 18.9796 8.24896C19.107 8.16151 19.2288 8.06071 19.3435 7.94608C20.3424 6.94712 20.3424 5.32748 19.3435 4.32852C18.3445 3.32956 16.7249 3.32956 15.7259 4.32852C15.6114 4.44306 15.5107 4.56485 15.4233 4.69205C14.6417 5.82965 13.2287 7.0215 11.6069 7.24446C11.2819 7.28912 10.9583 7.36848 10.6422 7.4827L16.1885 13.029C16.3026 12.7131 16.3819 12.3897 16.4266 12.065ZM5.41414 14.6308C5.16608 14.958 4.96927 15.3301 4.83654 15.7337L3.34305 15.7337C2.88748 15.7337 2.49609 16.0733 2.49609 16.5289C2.49609 18.464 3.36846 20.1846 4.72172 21.2785C4.99345 21.4982 5.33993 21.5953 5.68934 21.5953L10.67 21.5953C11.0194 21.5953 11.3659 21.4982 11.6376 21.2785C12.9909 20.1846 13.8633 18.464 13.8633 16.5289C13.8633 16.0733 13.4719 15.7337 13.0163 15.7337L11.5231 15.7337C11.3904 15.3303 11.1937 14.9583 10.9458 14.6312C10.5125 14.0596 10.4098 13.1702 10.5407 12.465C10.5673 12.322 10.5811 12.1745 10.5811 12.0238C10.5811 10.6978 9.5062 9.62287 8.18018 9.62287C6.85416 9.62287 5.77921 10.6978 5.77921 12.0238C5.77921 12.1744 5.79306 12.3217 5.81957 12.4646C5.95042 13.1698 5.84754 14.0593 5.41414 14.6308ZM9.26256 12.2276C9.27465 12.1625 9.28115 12.0945 9.28115 12.0238C9.28115 11.4158 8.78823 10.9229 8.18018 10.9229C7.57213 10.9229 7.07921 11.4158 7.07921 12.0238C7.07921 12.0945 7.08569 12.1624 7.09776 12.2274C7.27013 13.1565 7.17615 14.4587 6.45001 15.4163C6.37472 15.5156 6.30637 15.6217 6.24595 15.7337L10.1137 15.7337C10.0533 15.6218 9.98504 15.5158 9.90983 15.4166C9.18382 14.4589 9.09005 13.1566 9.26256 12.2276ZM3.82119 17.0337C3.95419 18.3625 4.60579 19.5132 5.53895 20.2675L10.8211 20.2669L10.67 20.2953C10.7748 20.2953 10.8173 20.2693 10.8211 20.2669C11.7539 19.5126 12.4052 18.3621 12.5382 17.0337L3.82119 17.0337Z"/></svg>

<svg xmlns="http://www.w3.org/2000/svg" fill="none" viewBox="0 0 24 24" focusable="false"><path fill="#74767B" fill-rule="evenodd" d="M17.71 12.24c.16-1.14 1.05-2.27 2-2.92.19-.14.38-.29.55-.46 1.5-1.51 1.5-3.95 0-5.46a3.875 3.875 0 0 0-5.46 0c-.17.18-.32.36-.45.55-.66.95-1.78 1.84-2.93 2q-.735.105-1.44.39c-.84.34-.91 1.41-.27 2.05l5.56 5.56c.64.64 1.71.57 2.05-.26.19-.48.32-.96.39-1.45m-1.29-.18c.22-1.62 1.42-3.03 2.55-3.82.13-.08.25-.18.37-.3a2.56 2.56 0 1 0-3.62-3.62c-.11.12-.21.24-.3.37-.78 1.13-2.2 2.33-3.82 2.55-.32.04-.65.12-.96.24l5.54 5.54c.12-.31.2-.64.24-.96M5.41 14.63c-.25.32-.45.7-.58 1.1H3.34c-.46 0-.85.34-.85.79 0 1.94.87 3.66 2.23 4.75.27.22.61.32.96.32h4.98c.35 0 .7-.1.97-.32 1.36-1.09 2.23-2.81 2.23-4.75 0-.45-.39-.79-.85-.79h-1.49c-.13-.4-.33-.78-.58-1.1-.43-.58-.54-1.46-.4-2.17a2.4 2.4 0 0 0-2.36-2.84 2.403 2.403 0 0 0-2.37 2.84c.14.7.03 1.59-.4 2.17m3.85-2.41a1.103 1.103 0 0 0-1.08-1.3c-.61 0-1.11.49-1.11 1.1 0 .07.01.14.02.2.18.93.08 2.23-.64 3.19-.08.1-.15.21-.21.32h3.87c-.06-.11-.13-.22-.21-.32-.72-.96-.82-2.26-.64-3.19m-5.44 4.81c.13 1.33.78 2.48 1.71 3.23h5.29l-.16.03c.11 0 .15-.03.16-.03.93-.75 1.58-1.9 1.71-3.23z"/></svg>
